X:1
T: The Runaway Bride
C:
R:Jig
Q:180
K:G
M:6/8
L:1/16
dc|B4B2 A2G2A2|G6 d4d2|e4d2 c4B2|B6 A4dc|
B4B2 A2G2A2|G6 d4d2|e2f2g2 a2g2e2|1d6 d4dc:|2d6 d4d2|
|:e2f2g2 f2g2a2|d6-d2c2B2|e4d2 c4B2|B6 A4dc|
B4B2 A2G2A2|G6 d4d2|e2f2g2 f2a2f2|1g6-g4d2:|2g6-g4||
